svg/filled/lock.svg

<svg width="24" height="24" viewBox="0 0 24 24" fill="none" xmlns="http://www.w3.org/2000/svg">
<rect x="5" y="11" width="14" height="10" rx="2" fill="black"/>
<path fill-rule="evenodd" clip-rule="evenodd" d="M9.5 6.75C9.36193 6.75 9.25 6.86193 9.25 7V12H7.75V7C7.75 6.0335 8.5335 5.25 9.5 5.25H14.5C15.4665 5.25 16.25 6.0335 16.25 7V12H14.75V7C14.75 6.86193 14.6381 6.75 14.5 6.75H9.5Z" fill="black"/>
</svg>

<svg xmlns="http://www.w3.org/2000/svg" viewBox="0 0 24 24" fill="currentColor">
  <rect width="14" height="10" x="5" y="11" rx="2"/>
  <path fill-rule="evenodd" d="M9.5 6.75a.25.25 0 00-.25.25v5h-1.5V7c0-.966.784-1.75 1.75-1.75h5c.966 0 1.75.784 1.75 1.75v5h-1.5V7a.25.25 0 00-.25-.25h-5z" clip-rule="evenodd"/>
</svg>
